src/lib/packages/icons/src/assets/filled/pinterest-p.svg

<svg width="24" height="24" viewBox="0 0 24 24" fill="none" xmlns="http://www.w3.org/2000/svg">
<path d="M8.01001 20.22C7.91001 19.35 7.82999 18 8.04999 17.05C8.24999 16.19 9.34003 11.57 9.34003 11.57C9.34003 11.57 9.01001 10.91 9.01001 9.92999C9.01001 8.39999 9.88999 7.25 10.99 7.25C11.93 7.25 12.38 7.96 12.38 8.8C12.38 9.75 11.78 11.16 11.47 12.47C11.21 13.57 12.02 14.46 13.09 14.46C15.04 14.46 16.54 12.39 16.54 9.41C16.54 6.77 14.65 4.92 11.96 4.92C8.84002 4.92 7.01001 7.27001 7.01001 9.71001C7.01001 10.66 7.37002 11.68 7.83002 12.23C7.92002 12.34 7.92997 12.44 7.90997 12.55C7.82997 12.9 7.63999 13.65 7.60999 13.8C7.55999 14 7.44999 14.04 7.23999 13.95C5.86999 13.31 5.01001 11.29 5.01001 9.67999C5.01001 6.19999 7.52 3 12.25 3C16.05 3 19.01 5.73 19.01 9.37C19.01 13.17 16.63 16.23 13.32 16.23C12.21 16.23 11.17 15.65 10.81 14.96C10.81 14.96 10.26 17.07 10.13 17.58C9.88 18.54 8.77999 20.42 8.10999 20.99L8.02002 20.21L8.01001 20.22Z" fill="currentColor"/>
</svg>

<svg xmlns="http://www.w3.org/2000/svg" width="24" height="24" fill="none"><path fill="currentColor" d="M8.01 20.22c-.1-.87-.18-2.22.04-3.17.2-.86 1.29-5.48 1.29-5.48s-.33-.66-.33-1.64c0-1.53.88-2.68 1.98-2.68.94 0 1.39.71 1.39 1.55 0 .95-.6 2.36-.91 3.67-.26 1.1.55 1.99 1.62 1.99 1.95 0 3.45-2.07 3.45-5.05 0-2.64-1.89-4.49-4.58-4.49-3.12 0-4.95 2.35-4.95 4.79 0 .95.36 1.97.82 2.52.09.11.1.21.08.32-.08.35-.27 1.1-.3 1.25-.05.2-.16.24-.37.15-1.37-.64-2.23-2.66-2.23-4.27C5.01 6.2 7.52 3 12.25 3c3.8 0 6.76 2.73 6.76 6.37 0 3.8-2.38 6.86-5.69 6.86-1.11 0-2.15-.58-2.51-1.27 0 0-.55 2.11-.68 2.62-.25.96-1.35 2.84-2.02 3.41l-.09-.78-.01.01Z"/></svg>
